trunk/public/assets/images/icons/red/move_down/log.svg

<svg width="16" height="16" xmlns="http://www.w3.org/2000/svg" viewBox="0 0 16 16" shape-rendering="geometricPrecision" fill="#cb1800"><defs><mask id="a"><rect fill="#fff" width="100%" height="100%"/><path fill="#000" d="M14.934-.397l-2.04 2.036L10.86-.398l-2.472 2.47 4.51 4.51 4.508-4.51z"/></mask></defs><path d="M12.895 3.052l-2.037-2.035L9.8 2.073l3.097 3.096 3.093-3.097-1.057-1.056"/><path d="M1.81 0v16h12.38V0H1.81zm2.555 9.815c-.462 0-.838-.376-.838-.84 0-.463.376-.838.838-.838.464 0 .842.375.842.838 0 .464-.378.84-.842.84zm0-2.658c-.462 0-.838-.376-.838-.844 0-.46.376-.837.838-.837.464 0 .842.376.842.837 0 .468-.378.844-.842.844zm0-2.662c-.462 0-.838-.376-.838-.838 0-.464.376-.84.838-.84.464 0 .842.376.842.84 0 .462-.378.838-.842.838zm8.11 5.117h-6.08V8.338h6.08v1.274zm0-2.658h-6.08V5.678h6.08v1.276zm0-2.66h-6.08V3.02h6.08v1.274z" mask="url(#a)"/></svg>

<?xml version="1.0"?><!DOCTYPE svg PUBLIC "-//W3C//DTD SVG 1.1//EN" "http://www.w3.org/Graphics/SVG/1.1/DTD/svg11.dtd"><svg width="16px" height="16px" xmlns="http://www.w3.org/2000/svg" viewBox="0 0 16 16" shape-rendering="geometricPrecision" fill="#cb1800"><defs><mask id="move_down-path"><rect fill="#fff" width="100%" height="100%"/><polygon points="14.934,-0.397 12.895,1.639 10.858,-0.397 8.386,2.073 12.897,6.583 17.404,2.073 " fill="#000"/></mask></defs><polygon points="12.895,3.052 10.858,1.017 9.8,2.073 12.897,5.169 15.99,2.073 14.933,1.017 " fill="#cb1800"/><g mask="url(#move_down-path)"><g><g><path d="M1.81-0.001v16H14.19v-16H1.81z M4.365,9.815c-0.462,0-0.838-0.376-0.838-0.84c0-0.463,0.376-0.838,0.838-0.838 c0.464,0,0.842,0.375,0.842,0.838C5.207,9.439,4.829,9.815,4.365,9.815z M4.365,7.157c-0.462,0-0.838-0.376-0.838-0.844 c0-0.461,0.376-0.837,0.838-0.837c0.464,0,0.842,0.376,0.842,0.837C5.207,6.781,4.829,7.157,4.365,7.157z M4.365,4.495 c-0.462,0-0.838-0.376-0.838-0.838c0-0.464,0.376-0.84,0.838-0.84c0.464,0,0.842,0.376,0.842,0.84 C5.207,4.119,4.829,4.495,4.365,4.495z M12.475,9.612h-6.08V8.338h6.08V9.612z M12.475,6.954h-6.08V5.678h6.08V6.954z M12.475,4.294h-6.08V3.019h6.08V4.294z"/></g></g></g></svg>
